icons/unity-panel/22x22/panel/unity-battery-040.svg

<?xml version="1.0" encoding="UTF-8" standalone="no"?>
<svg
   viewBox="0 0 14 22"
   version="1.1"
   id="svg8"
   sodipodi:docname="unity-battery-040.svg"
   inkscape:version="1.1.1 (3bf5ae0d25, 2021-09-20)"
   xmlns:inkscape="http://www.inkscape.org/namespaces/inkscape"
   xmlns:sodipodi="http://sodipodi.sourceforge.net/DTD/sodipodi-0.dtd"
   xmlns="http://www.w3.org/2000/svg"
   xmlns:svg="http://www.w3.org/2000/svg">
  <defs
     id="defs12" />
  <sodipodi:namedview
     id="namedview10"
     pagecolor="#ffffff"
     bordercolor="#666666"
     borderopacity="1.0"
     inkscape:pageshadow="2"
     inkscape:pageopacity="0.0"
     inkscape:pagecheckerboard="0"
     showgrid="true"
     inkscape:zoom="17.099128"
     inkscape:cx="6.9886606"
     inkscape:cy="15.702555"
     inkscape:window-width="1298"
     inkscape:window-height="704"
     inkscape:window-x="68"
     inkscape:window-y="27"
     inkscape:window-maximized="1"
     inkscape:current-layer="svg8">
    <inkscape:grid
       type="xygrid"
       id="grid943" />
  </sodipodi:namedview>
  <path
     d="M 5.00414,3 V 4.0117 C 4.23266,4.028096 3.60594,4.087994 3.06774,4.38475 2.6786148,4.6068999 2.3816277,4.9608621 2.23034,5.3828 2.06544,5.8198 2.00586,6.34299 2.00586,7 v 7 H 2 v 1 c 0,0.658 0.059574,1.1792 0.22448,1.6172 0.1639,0.439 0.46162,0.78909 0.8374,0.99609 0.75256,0.415 1.6727,0.37172 2.9299,0.38672 h 2.0104997 c 1.2573,-0.015 2.1774003,0.02828 2.9299003,-0.38672 0.37578,-0.207 0.67349,-0.55709 0.8374,-0.99609 0.16481,-0.438 0.22447,-0.95919 0.22447,-1.6172 h 0.0059 V 7 c 0,-0.657 -0.05958,-1.1802 -0.22448,-1.6172 C 11.624173,4.9608558 11.327171,4.6068928 10.938031,4.38475 10.399901,4.088 9.7731307,4.0281 9.0016307,4.0117 V 3 Z m 0.99941,2 h 1.9987997 c 1.2593,0.015 2.0859003,0.059719 2.4517003,0.26172 0.18389,0.101 0.28855,0.21266 0.38649,0.47266 0.09694,0.26 0.16006,0.67362 0.16006,1.2656 v 7 h -0.0059 v 1 c 0,0.592 -0.06312,1.0056 -0.16006,1.2656 -0.09794,0.259 -0.20065,0.37266 -0.38454,0.47266 -0.36462,0.202 -1.1953003,0.24672 -2.4536003,0.26172 H 5.9977 C 4.7394,16.98496 3.9089,16.94024 3.5441,16.73824 3.36021,16.63824 3.2575,16.52458 3.15956,16.26558 3.062617,16.00558 2.9995,15.59196 2.9995,14.99998 v -1 h 0.00586 v -7 c 0,-0.592 0.063119,-1.0056 0.16006,-1.2656 0.097942,-0.26 0.2026,-0.37166 0.38649,-0.47266 C 3.91769,5.05972 4.74431,5.015 6.00361,5 Z"
     enable-background="new"
     fill="#ffffff"
     id="path2"
     style="fill:#ffffff"
     sodipodi:nodetypes="ccccsccsccccccccscccccccccsccsccccccsccscccc" />
  <path
     d="m 4,12 4e-5,3 c 7.4e-6,0.554 0.446,1 1,1 h 3.9999997 c 0.554,0 1.0000003,-0.446 1.0000003,-1 L 10,12 Z"
     fill="#ffffff"
     stroke-width="5"
     id="path4"
     style="fill:#ffffff"
     sodipodi:nodetypes="csssscc" />
</svg>

<svg version="1.1" viewBox="0 0 14 22" xmlns="http://www.w3.org/2000/svg">
 <path d="m5.0041 3v1.0117c-0.77148 0.016396-1.3982 0.076294-1.9364 0.37305-0.38913 0.22215-0.68611 0.57611-0.8374 0.99805-0.1649 0.437-0.22448 0.96019-0.22448 1.6172v7h-0.00586v1c0 0.658 0.059574 1.1792 0.22448 1.6172 0.1639 0.439 0.46162 0.78909 0.8374 0.99609 0.75256 0.415 1.6727 0.37172 2.9299 0.38672h2.0105c1.2573-0.015 2.1774 0.02828 2.9299-0.38672 0.37578-0.207 0.67349-0.55709 0.8374-0.99609 0.16481-0.438 0.22447-0.95919 0.22447-1.6172h0.0059v-8c0-0.657-0.05958-1.1802-0.22448-1.6172-0.1513-0.42194-0.4483-0.77591-0.83744-0.99805-0.53813-0.29675-1.1649-0.35665-1.9364-0.37305v-1.0117zm0.99941 2h1.9988c1.2593 0.015 2.0859 0.059719 2.4517 0.26172 0.18389 0.101 0.28855 0.21266 0.38649 0.47266 0.09694 0.26 0.16006 0.67362 0.16006 1.2656v7h-0.0059v1c0 0.592-0.06312 1.0056-0.16006 1.2656-0.09794 0.259-0.20065 0.37266-0.38454 0.47266-0.36462 0.202-1.1953 0.24672-2.4536 0.26172h-1.9988c-1.2583-0.015-2.0888-0.05972-2.4536-0.26172-0.18389-0.1-0.2866-0.21366-0.38454-0.47266-0.096943-0.26-0.16006-0.67362-0.16006-1.2656v-1h0.00586v-7c0-0.592 0.063119-1.0056 0.16006-1.2656 0.097942-0.26 0.2026-0.37166 0.38649-0.47266 0.36578-0.202 1.1924-0.24672 2.4517-0.26172z" enable-background="new" fill="#fff"/>
 <path d="m4 12 4e-5 3c7.4e-6 0.554 0.446 1 1 1h4c0.554 0 1-0.446 1-1l-4e-5 -3z" fill="#fff" stroke-width="5"/>
</svg>
